src/16/actions/games-config-board.svg

<svg xmlns="http://www.w3.org/2000/svg" width="16" height="16" viewBox="0 0 16 16">
 <defs>
  <style id="current-color-scheme" type="text/css">
   .ColorScheme-Text { color:#565656; } .ColorScheme-Highlight { color:#5294e2; }
  </style>
 </defs>
 <path style="fill:currentColor" class="ColorScheme-Text" d="m1 1v14h14v-14h-14zm2 2h2v2h-2v-2zm4 0h2v2h-2v-2zm4 0h2v2h-2v-2zm-8 4h2v2h-2v-2zm4 0h2v2h-2v-2zm4 0h2v2h-2v-2zm-8 4h2v2h-2v-2zm4 0h2v2h-2v-2zm4 0h2v2h-2v-2z"/>
</svg>

<svg xmlns="http://www.w3.org/2000/svg" width="16" height="16"><defs><style id="current-color-scheme" type="text/css"></style></defs><path d="M1 1v14h14V1H1zm2 2h2v2H3V3zm4 0h2v2H7V3zm4 0h2v2h-2V3zM3 7h2v2H3V7zm4 0h2v2H7V7zm4 0h2v2h-2V7zm-8 4h2v2H3v-2zm4 0h2v2H7v-2zm4 0h2v2h-2v-2z" fill="currentColor" color="#565656"/></svg>
